!!!OTL: Passionslied
!!!ARE: Europa, Mitteleuropa, Deutschland
!!!SCT: A0546B
!!!YEM: Copyright 1995, estate of Helmut Schaffrath.
**kern
*ICvox
*Ivox
*M4/2
*k[b-]
*d:
{4d
=1
2d
2a
4e
4fn
4g
4a
=2
2fn
2e
2d
4r}
{4d
=3
2a
2b
2ccn
2b
=4
2a
2g#
2a
4r}
{4a
=5
2dd
2b
2ccn
2a
=6
2g
2fn
2e
4r}
{4e
=7
2d
2a
4e
4fn
4g
4a
=8
2fn
2e
2d
4r}
{4d
=9
2c#
2d
2e
4r
4fn
=10
4a
4g
4fn
4e
2d
4r}
{4a
=11
2a
2a
2g
2a
=12
2fn
2e
2d
4r}
==
!!!AGN: Romanze, Ballade, Lied, religioeses Lied
!! Hs.
!!!ONB: ESAC (Essen Associative Code) Database: ALTDEU
!!!AMT: simple quadruple
!!!AIN: vox
!!!EED: Helmut Schaffrath
!!!EEV: 1.0
*-
